svg/system/safe_shield_line.svg

<?xml version="1.0" encoding="UTF-8"?>
<svg width="24px" height="24px" viewBox="0 0 24 24" version="1.1" xmlns="http://www.w3.org/2000/svg" xmlns:xlink="http://www.w3.org/1999/xlink">
    <title>safe_shield_line</title>
    <g id="页面-1" stroke="none" stroke-width="1" fill="none" fill-rule="evenodd">
        <g id="System" transform="translate(-480.000000, -288.000000)">
            <g id="safe_shield_line" transform="translate(480.000000, 288.000000)">
                 <path d="M24,0 L24,24 L0,24 L0,0 L24,0 Z M12.5934901,23.257841 L12.5819402,23.2595131 L12.5108777,23.2950439 L12.4918791,23.2987469 L12.4918791,23.2987469 L12.4767152,23.2950439 L12.4056548,23.2595131 C12.3958229,23.2563662 12.3870493,23.2590235 12.3821421,23.2649074 L12.3780323,23.275831 L12.360941,23.7031097 L12.3658947,23.7234994 L12.3769048,23.7357139 L12.4804777,23.8096931 L12.4953491,23.8136134 L12.4953491,23.8136134 L12.5071152,23.8096931 L12.6106902,23.7357139 L12.6232938,23.7196733 L12.6232938,23.7196733 L12.6266527,23.7031097 L12.609561,23.275831 C12.6075724,23.2657013 12.6010112,23.2592993 12.5934901,23.257841 L12.5934901,23.257841 Z M12.8583906,23.1452862 L12.8445485,23.1473072 L12.6598443,23.2396597 L12.6498822,23.2499052 L12.6498822,23.2499052 L12.6471943,23.2611114 L12.6650943,23.6906389 L12.6699349,23.7034178 L12.6699349,23.7034178 L12.678386,23.7104931 L12.8793402,23.8032389 C12.8914285,23.8068999 12.9022333,23.8029875 12.9078286,23.7952264 L12.9118235,23.7811639 L12.8776777,23.1665331 C12.8752882,23.1545897 12.8674102,23.1470016 12.8583906,23.1452862 L12.8583906,23.1452862 Z M12.1430473,23.1473072 C12.1332178,23.1423925 12.1221763,23.1452606 12.1156365,23.1525954 L12.1099173,23.1665331 L12.0757714,23.7811639 C12.0751323,23.7926639 12.0828099,23.8018602 12.0926481,23.8045676 L12.108256,23.8032389 L12.3092106,23.7104931 L12.3186497,23.7024347 L12.3186497,23.7024347 L12.3225043,23.6906389 L12.340401,23.2611114 L12.337245,23.2485176 L12.337245,23.2485176 L12.3277531,23.2396597 L12.1430473,23.1473072 Z" id="MingCute" fill-rule="nonzero"></path>
                <path d="M11.2978,2.19546 C11.6939125,2.04689375 12.1254734,2.02832297 12.530448,2.13974766 L12.7022,2.19546 L19.7022,4.82046 C20.4308533,5.09366533 20.9298818,5.76194569 20.9931804,6.52765634 L21,6.69312 L21,12.0558 C21,15.3645353 19.185628,18.3976292 16.2910032,19.9670871 L16.0249,20.1057 L12.6708,21.7827 C12.2954222,21.9704333 11.8610222,21.9912926 11.4725284,21.8452778 L11.3292,21.7827 L7.97508,20.1057 C5.01569824,18.6260382 3.11426678,15.6467406 3.00497789,12.3558017 L3,12.0558 L3,6.69312 C3,5.91500933 3.45049511,5.21306862 4.14521784,4.8849426 L4.29775,4.82046 L11.2978,2.19546 Z M12,4.06812 L5,6.69312 L5,12.0558 C5,14.61882 6.39981647,16.9692539 8.63528667,18.1941401 L8.8695,18.3168 L12,19.8821 L15.1305,18.3168 C17.42295,17.1706233 18.8991628,14.8674176 18.9950298,12.3201442 L19,12.0558 L19,6.69312 L12,4.06812 Z M11.5085,7.51636 C11.7801286,7.41448 12.0755612,7.39992571 12.353991,7.47269714 L12.4916,7.51636 L15.2916,8.56636 C15.7959692,8.75550769 16.1432166,9.21514533 16.1936548,9.74374893 L16.2,9.87722 L16.2,12.0223 C16.2,13.5408864 15.3810521,14.9350087 14.0690481,15.6773431 L13.8783,15.7789 L12.5367,16.4497 C12.241125,16.5974875 11.8996891,16.6159609 11.5926488,16.5051203 L11.4634,16.4497 L10.1218,15.7789 C8.76353909,15.0998364 7.88284291,13.7438742 7.80558595,12.2383373 L7.80005,12.0223 L7.80005,9.87722 C7.80005,9.33853077 8.1084997,8.8519968 8.5857355,8.61916567 L8.70848,8.56636 L11.5085,7.51636 Z M12,9.46802 L9.80005,10.293 L9.80005,12.0223 C9.80005,12.8000467 10.2102127,13.5155089 10.8708575,13.9103848 L11.0162,13.99 L12,14.482 L12.9839,13.99 C13.6795133,13.64224 14.1360067,12.9554436 14.1937808,12.1879125 L14.2,12.0223 L14.2,10.293 L12,9.46802 Z" id="形状" fill="#09244B"></path>
            </g>
        </g>
    </g>
</svg>

<svg xmlns="http://www.w3.org/2000/svg" width="24" height="24"><g fill="none" fill-rule="evenodd"><path d="M24 0v24H0V0h24ZM12.593 23.258l-.011.002-.071.035-.02.004-.014-.004-.071-.035c-.01-.004-.019-.001-.024.005l-.004.01-.017.428.005.02.01.013.104.074.015.004.012-.004.104-.074.012-.016.004-.017-.017-.427c-.002-.01-.009-.017-.017-.018Zm.265-.113-.013.002-.185.093-.01.01-.003.011.018.43.005.012.008.007.201.093c.012.004.023 0 .029-.008l.004-.014-.034-.614c-.003-.012-.01-.02-.02-.022Zm-.715.002a.023.023 0 0 0-.027.006l-.006.014-.034.614c0 .012.007.02.017.024l.015-.002.201-.093.01-.008.004-.011.017-.43-.003-.012-.01-.01-.184-.092Z"/><path fill="#09244B" d="M11.298 2.195a2 2 0 0 1 1.232-.055l.172.055 7 2.625a2 2 0 0 1 1.291 1.708l.007.165v5.363a9 9 0 0 1-4.709 7.911l-.266.139-3.354 1.677a1.5 1.5 0 0 1-1.198.062l-.144-.062-3.354-1.677a9 9 0 0 1-4.97-7.75l-.005-.3V6.693a2 2 0 0 1 1.145-1.808l.153-.065 7-2.625ZM12 4.068 5 6.693v5.363a7 7 0 0 0 3.635 6.138l.235.123L12 19.882l3.13-1.565a7 7 0 0 0 3.865-5.997l.005-.264V6.693l-7-2.625Zm-.492 3.448a1.4 1.4 0 0 1 .846-.043l.138.043 2.8 1.05a1.4 1.4 0 0 1 .902 1.178l.006.133v2.145a4.2 4.2 0 0 1-2.131 3.655l-.19.102-1.342.67a1.2 1.2 0 0 1-.944.056l-.13-.055-1.341-.671a4.2 4.2 0 0 1-2.316-3.54l-.006-.217V9.877a1.4 1.4 0 0 1 .786-1.258l.122-.053 2.8-1.05ZM12 9.468l-2.2.825v1.73a2.2 2.2 0 0 0 1.07 1.887l.146.08.984.492.984-.492a2.2 2.2 0 0 0 1.21-1.802l.006-.166v-1.729L12 9.468Z"/></g></svg>
